X:1
T:Title
%%score ( 1 2 ) { 3 | 4 }
L:1/8
Q:1/4=104
M:4/4
K:Eb
V:1 treble nm="Grand Piano, Soprano"
V:2 treble 
V:3 bass nm="Choir Pad, Edstaston, 87.87 D"
V:4 bass 
V:1
 [EG]2 [EG]2 [EG][DF][CE][DF] | [EG]2 [EA]2 [Ac]2 [GB]2 | [Ae]2 [EA]2 [EG]2 [Fc]2 | %3
w: By~Geoffrey~Charles~Edward~Ryley,~1907 * * * * *|||
 [GB]2 [FA][EG] [DF]4 | [EG]2 [EG]2 [EG][DF][CE][DF] | [EG]2 [EA]2 [Ac]2 [GB]2 | %6
w: |||
 [F=A]2 [Fe]2 [Fd]2 [FB]2 | [Gc]2 B=A [FB]4 | [Fd]2 cB [Ee]2 [GB]2 | [Gd]2 [Gc]2 [GB]2 [_G=A]2 | %10
w: ||||
 [GB]2 =AG [Cc]2 [CG]2 | [GB]2 [FA][EG] F2- [DF]2 | [EG]2 [EG]2 [EG][DF][CE][DF] | %13
w: |||
 [EG]2 [EA]2 [Ac]2 [GB]2 | [Ae]2 [EA]2 [EG]2 [Ec]2 | [EB]2 GF E4- | E4 z4 |] %17
w: ||||
V:2
 x8 | x8 | x8 | x8 | x8 | x8 | x8 | z2 F2 z4 | z2 F2 z4 | x8 | z2 D2 z4 | z4 E2 z2 | x8 | x8 | x8 | %15
 z2 D2 z4 | x8 |] %17
V:3
 B,2 B,2 B,B, B,2 | B,2[K:treble] C2 D2 E2 | E2 C2 C2 D2 | E2 C2 D4 | B,2 B,2 B,2 B,2 | %5
 B,2[K:treble] C2 D2 E2 | C2 C2 D2 F2 | E2 DC D4 | DB,CD E2 D2 | G2 E2 D2 C2 | B,G,=A,=B, C2 C2 | %11
 C2 C2 F,2 B,2 | B,2 B,2 B,2 B,2 | B,2 C2 D2 E2 | E2 E,2 E,2 F,2 | G,2 A,2 G,4- | G,4 z4 |] %17
V:4
 E,2 B,,2 G,,G,, B,,2 | E,2 E,2 E,2 E,2 | C,2 z2 B,2 A,2 | G,2 A,2 B,4 | E,2 B,,2 G,,2 B,,2 | %5
 E,2 E,2 E,2 E,2 | F,2 =A,,2 B,,2 D,2 | E,2 F,2 B,4 | .B,2 A,2 G,2 G,2 | B,,2 C,2 D,2 D,2 | %10
 .G,2 F,2 E,2 =E,2 | F,2 A,,2 B,,4 | E,2 B,,2 G,,2 B,,2 | E,2 E,2 E,2 E,2 | C,2 C,2 B,,2 =A,,2 | %15
 B,,2 B,,2 E,4- | E,4 z4 |] %17

